src/assets/img/ErrorBoundary/error.svg

<svg fill="none" height="88" viewBox="0 0 88 88" width="88" xmlns="http://www.w3.org/2000/svg"><path d="m77 30.25v38.8094c0 .6473-.2571 1.2681-.7148 1.7258s-1.0785.7148-1.7258.7148h-60.8094c-.7293 0-1.4288-.2897-1.9445-.8055-.5158-.5157-.8055-1.2152-.8055-1.9445v-46.75c0-.7293.2897-1.4288.8055-1.9445.5157-.5158 1.2152-.8055 1.9445-.8055h18.3219c.5946.0024 1.1728.1952 1.65.55l9.5562 7.15c.4772.3548 1.0554.5476 1.65.55h29.3219c.7293 0 1.4288.2897 1.9445.8055.5158.5157.8055 1.2152.8055 1.9445z" stroke="#fff" stroke-linecap="round" stroke-linejoin="round" stroke-opacity=".6" stroke-width="1.3"/><path d="m32.3333 58.25 3.7778-4.7222 3.7778 4.7222 3.7778-4.7222 3.7777 4.7222 3.7778-4.7222 3.7778 4.7222" stroke="#fff" stroke-linecap="round" stroke-linejoin="round" stroke-opacity=".6" stroke-width="1.3"/><g fill="#fff" fill-opacity=".6"><path d="m35.1677 45.03c1.0438 0 1.89-.8462 1.89-1.89s-.8462-1.89-1.89-1.89-1.89.8462-1.89 1.89.8462 1.89 1.89 1.89z"/><path d="m52.1677 45.03c1.0438 0 1.89-.8462 1.89-1.89s-.8462-1.89-1.89-1.89-1.89.8462-1.89 1.89.8462 1.89 1.89 1.89z"/></g></svg>

<svg width="88" height="88" viewBox="0 0 88 88" fill="none" xmlns="http://www.w3.org/2000/svg">
<path d="M77 30.25V69.0594C77 69.7067 76.7429 70.3275 76.2852 70.7852C75.8275 71.2429 75.2067 71.5 74.5594 71.5H13.75C13.0207 71.5 12.3212 71.2103 11.8055 70.6945C11.2897 70.1788 11 69.4793 11 68.75V22C11 21.2707 11.2897 20.5712 11.8055 20.0555C12.3212 19.5397 13.0207 19.25 13.75 19.25H32.0719C32.6665 19.2524 33.2447 19.4452 33.7219 19.8L43.2781 26.95C43.7553 27.3048 44.3335 27.4976 44.9281 27.5H74.25C74.9793 27.5 75.6788 27.7897 76.1945 28.3055C76.7103 28.8212 77 29.5207 77 30.25Z" stroke="white" stroke-opacity="0.6" stroke-width="1.3" stroke-linecap="round" stroke-linejoin="round"/>
<path d="M32.3333 58.25L36.1111 53.5278L39.8889 58.25L43.6667 53.5278L47.4444 58.25L51.2222 53.5278L55 58.25" stroke="white" stroke-opacity="0.6" stroke-width="1.3" stroke-linecap="round" stroke-linejoin="round"/>
<path d="M35.1677 45.03C36.2115 45.03 37.0577 44.1838 37.0577 43.14C37.0577 42.0962 36.2115 41.25 35.1677 41.25C34.1239 41.25 33.2777 42.0962 33.2777 43.14C33.2777 44.1838 34.1239 45.03 35.1677 45.03Z" fill="white" fill-opacity="0.6"/>
<path d="M52.1677 45.03C53.2115 45.03 54.0577 44.1838 54.0577 43.14C54.0577 42.0962 53.2115 41.25 52.1677 41.25C51.1239 41.25 50.2777 42.0962 50.2777 43.14C50.2777 44.1838 51.1239 45.03 52.1677 45.03Z" fill="white" fill-opacity="0.6"/>
</svg>
